public/images/scroll-down-arrow.svg

<svg fill="none" height="84" viewBox="0 0 30 84" width="30" xmlns="http://www.w3.org/2000/svg"><path d="m13.92 84c-2.72-5.68-7.04-10.96-12.96-15.84v-4.2c5.12 2.48 8.96 4.8 11.52 6.96v-69.960004h5.04v69.960004c2.56-2.16 6.4-4.48 11.52-6.96v4.2c-5.84 4.88-10.16 10.16-12.96 15.84z" fill="#fff"/></svg>

<svg width="30" height="84" viewBox="0 0 30 84" fill="none" xmlns="http://www.w3.org/2000/svg">
<path d="M13.92 84C11.2 78.32 6.88 73.04 0.96 68.16V63.96C6.08 66.44 9.92 68.76 12.48 70.92V0.959996H17.52V70.92C20.08 68.76 23.92 66.44 29.04 63.96V68.16C23.2 73.04 18.88 78.32 16.08 84H13.92Z" fill="white"/>
</svg>
